src/svg/resizeupdown.svg

<?xml version="1.0" encoding="UTF-8" standalone="no"?>
<svg width="35px" height="35px" viewBox="0 0 35 35" version="1.1" xmlns="http://www.w3.org/2000/svg" xmlns:xlink="http://www.w3.org/1999/xlink">
    <defs></defs>
    <g id="Page-1" stroke="none" stroke-width="1" fill="none" fill-rule="evenodd">
        <g id="resizeupdown">
            <g id="bg-copy" fill="#FFFFFF" opacity="0.00999999978">
                <rect id="bg" x="0" y="0" width="35" height="35"></rect>
            </g>
            <path d="M16.9883,8 L11.5273,13.962 L15.0053,13.962 L15.0053,15 L9.0003,15 L9.0003,15.019 L9.0003,18.961 L9.0003,18.981 L15.0053,18.981 L15.0053,20.039 L11.5393,20.039 L17.0113,26 L22.4733,20.039 L18.9953,20.039 L18.9953,18.981 L25.0003,18.981 L25.0003,15 L18.9943,15 L18.9943,13.962 L22.4613,13.962 L16.9883,8 Z" id="resize-border" fill="#FFFFFF"></path>
            <path d="M23.9609,16.0195 L17.9799,16.0195 L17.9799,12.9805 L20.2399,12.9805 L16.9889,9.6615 L13.7659,12.9805 L16.0199,12.9805 L16.0199,16.0195 L10.0399,16.0195 L10.0199,16.0195 L10.0199,17.9805 L10.0399,17.9805 L16.0399,17.9805 L16.0399,21.0195 L13.7599,21.0195 L17.0109,24.3395 L20.2339,21.0195 L17.9809,21.0195 L17.9809,17.9805 L23.9609,17.9805 L23.9809,17.9805 L23.9809,16.0195 L23.9609,16.0195 Z" id="resize" fill="#000000"></path>
        </g>
    </g>
</svg>

<svg height="35" viewBox="0 0 35 35" width="35" xmlns="http://www.w3.org/2000/svg"><g fill="none" fill-rule="evenodd"><path d="m16.9883 8-5.461 5.962h3.478v1.038h-6.005v.019 3.942.02h6.005v1.058h-3.466l5.472 5.961 5.462-5.961h-3.478v-1.058h6.005v-3.981h-6.006v-1.038h3.467z" fill="#fff"/><path d="m23.9609 16.0195h-5.981v-3.039h2.26l-3.251-3.319-3.223 3.319h2.254v3.039h-5.98-.02v1.961h.02 6v3.039h-2.28l3.251 3.32 3.223-3.32h-2.253v-3.039h5.98.02v-1.961z" fill="#000"/></g></svg>
